src/images/trash-can-regular-full.svg

<?xml version="1.0" encoding="utf-8"?>
<!-- Generator: Adobe Illustrator 26.1.0, SVG Export Plug-In . SVG Version: 6.00 Build 0)  -->
<svg version="1.1" id="Layer_1" xmlns="http://www.w3.org/2000/svg" xmlns:xlink="http://www.w3.org/1999/xlink" x="0px" y="0px"
	 viewBox="0 0 640 640" style="enable-background:new 0 0 640 640;" xml:space="preserve">
<style type="text/css">
	.st0{fill:#FFFFFF;}
</style>
<path class="st0" d="M262.2,48c-13.3,0-25.3,8.3-30,20.8L216,112h-96c-13.3,0-24,10.7-24,24s10.7,24,24,24h400c13.3,0,24-10.7,24-24
	s-10.7-24-24-24h-96l-16.2-43.2c-4.7-12.5-16.6-20.8-30-20.8H262.2z M128,208v304c0,35.3,28.7,64,64,64h256c35.3,0,64-28.7,64-64
	V208h-48v304c0,8.8-7.2,16-16,16H192c-8.8,0-16-7.2-16-16V208H128z M288,280c0-13.3-10.7-24-24-24c-13.3,0-24,10.7-24,24v176
	c0,13.3,10.7,24,24,24c13.3,0,24-10.7,24-24V280z M400,280c0-13.3-10.7-24-24-24s-24,10.7-24,24v176c0,13.3,10.7,24,24,24
	s24-10.7,24-24V280z"/>
</svg>

<svg xmlns="http://www.w3.org/2000/svg" viewBox="0 0 640 640"><!--!Font Awesome Free 7.1.0 by @fontawesome - https://fontawesome.com License - https://fontawesome.com/license/free Copyright 2025 Fonticons, Inc.--><path d="M262.2 48C248.9 48 236.9 56.3 232.2 68.8L216 112L120 112C106.7 112 96 122.7 96 136C96 149.3 106.7 160 120 160L520 160C533.3 160 544 149.3 544 136C544 122.7 533.3 112 520 112L424 112L407.8 68.8C403.1 56.3 391.2 48 377.8 48L262.2 48zM128 208L128 512C128 547.3 156.7 576 192 576L448 576C483.3 576 512 547.3 512 512L512 208L464 208L464 512C464 520.8 456.8 528 448 528L192 528C183.2 528 176 520.8 176 512L176 208L128 208zM288 280C288 266.7 277.3 256 264 256C250.7 256 240 266.7 240 280L240 456C240 469.3 250.7 480 264 480C277.3 480 288 469.3 288 456L288 280zM400 280C400 266.7 389.3 256 376 256C362.7 256 352 266.7 352 280L352 456C352 469.3 362.7 480 376 480C389.3 480 400 469.3 400 456L400 280z"/></svg>
